X: 137018
T: RORY O'MORE
Q: "Irish Jig."
R: Jig.
%R: jig
B: James Kerr "Merry Melodies" v.1 p.37 s.0 #18
Z: 2017 John Chambers <jc:trillian.mit.edu>
M: 6/8
L: 1/8
K: A
|: uf |\
eAA cBA | eAA uA2uf | edc cBA | GBB Bcd |\
eAA cBA | eAA fed | cee efg | aec A2 :|
ue |\
agf edc | dcB uA2uG | F2G A2B | cfe efg |\
agf edc | edB A2G | F2G A2B | cfe e2 :|

%%sep 1 1 500
%%sep 1 1 500

